X:21176 
T:SALLY MAGEE 
B:DMI.0314
Z:Nordberg/Black
R:jig
%Q:1/4=160
M:6/8
L:1/8
K:G
D|DGG GFG|AFD FGA|B2G A2F|GFD D2D|
DGG GFG|BAG ABc|BdB cAF|AGG G2:|
g|fef dfd|cAG FGA|fef dfd|cAF G2g|
fef dfd|cAG FGA|BdB cAF|AGG G2:|

%%%

